src/assets/outline/ProfileRemove.svg

<svg width="24" height="24" viewBox="0 0 24 24"  xmlns="http://www.w3.org/2000/svg">
<path d="M19.5 19.75H15.5C15.09 19.75 14.75 19.41 14.75 19C14.75 18.59 15.09 18.25 15.5 18.25H19.5C19.91 18.25 20.25 18.59 20.25 19C20.25 19.41 19.91 19.75 19.5 19.75Z" />
<path d="M12.1503 11.62C12.1203 11.62 12.1003 11.62 12.0703 11.62C12.0103 11.61 11.9503 11.62 11.8903 11.62C8.99029 11.53 6.80029 9.25 6.80029 6.44C6.80029 3.58 9.13029 1.25 11.9903 1.25C14.8503 1.25 17.1803 3.58 17.1803 6.44C17.1703 9.25 14.9703 11.53 12.1803 11.62C12.1703 11.62 12.1603 11.62 12.1503 11.62ZM11.9903 2.75C9.96029 2.75 8.30029 4.41 8.30029 6.44C8.30029 8.44 9.86029 10.05 11.8503 10.12C11.9103 10.11 12.0403 10.11 12.1703 10.12C14.1303 10.03 15.6703 8.42 15.6803 6.44C15.6803 4.41 14.0203 2.75 11.9903 2.75Z" />
<path d="M11.9902 22.5602C9.95016 22.5602 8.02016 22.0302 6.56016 21.0502C5.17016 20.1202 4.41016 18.8502 4.41016 17.4802C4.41016 16.1102 5.18016 14.8502 6.56016 13.9302C9.55016 11.9302 14.4102 11.9302 17.4002 13.9302C17.7402 14.1602 17.8402 14.6302 17.6102 14.9702C17.3802 15.3202 16.9102 15.4102 16.5702 15.1802C14.0802 13.5202 9.88016 13.5202 7.39016 15.1802C6.43016 15.8202 5.91016 16.6302 5.91016 17.4802C5.91016 18.3302 6.43016 19.1602 7.39016 19.8002C8.60016 20.6102 10.2302 21.0502 11.9802 21.0502C12.3902 21.0502 12.7302 21.3902 12.7302 21.8002C12.7302 22.2102 12.4002 22.5602 11.9902 22.5602Z" />
</svg>

<?xml version="1.0" encoding="UTF-8"?>
<svg width="24" height="24" viewBox="0 0 24 24" xmlns="http://www.w3.org/2000/svg">
 <path d="m19.5 19.75h-4c-0.41 0-0.75-0.34-0.75-0.75s0.34-0.75 0.75-0.75h4c0.41 0 0.75 0.34 0.75 0.75s-0.34 0.75-0.75 0.75z"/>
 <path d="m12.15 11.62h-0.08c-0.06-0.01-0.12 0-0.18 0-2.9-0.09-5.09-2.37-5.09-5.18 0-2.86 2.33-5.19 5.19-5.19 2.86 0 5.19 2.33 5.19 5.19-0.01 2.81-2.21 5.09-5 5.18h-0.03zm-0.16-8.87c-2.03 0-3.69 1.66-3.69 3.69 0 2 1.56 3.61 3.55 3.68 0.06-0.01 0.19-0.01 0.32 0 1.96-0.09 3.5-1.7 3.51-3.68 0-2.03-1.66-3.69-3.69-3.69z"/>
 <path d="m11.99 22.56c-2.04 0-3.97-0.53-5.43-1.51-1.39-0.93-2.15-2.2-2.15-3.57s0.77-2.63 2.15-3.55c2.99-2 7.85-2 10.84 0 0.34 0.23 0.44 0.7 0.21 1.04-0.23 0.35-0.7 0.44-1.04 0.21-2.49-1.66-6.69-1.66-9.18 0-0.96 0.64-1.48 1.45-1.48 2.3s0.52 1.68 1.48 2.32c1.21 0.81 2.84 1.25 4.59 1.25 0.41 0 0.75 0.34 0.75 0.75s-0.33 0.76-0.74 0.76z"/>
</svg>
